X: 153
T: Cantantibus organis – Adagio
C: Franciszek Walczyński
%%abc-version 2.0
%%abcx-abcm2ps-target-version 5.9.1 (29 Sep 2008)
%%abc-creator hum2abc beta
%%abcx-conversion-date 2021/10/04 07:38:39
%%abc-edited-by Andrzej Kubiczek
%%abc-edited-by Anastazja Marusiak
%%abcx-initial-encoding-date 2021-08-09
%%humdrum-veritas 3915725320
%%humdrum-veritas-data 3517089819
%%linebreak <none>
%%barnumbers 0
L: 1/8
M: 2/4
N: Derived from pl-kozmzk--mzk-m-346--055_walczynski-franciszek--cantantibus-organis-adagio.krn
Q: "Adagio."
%%staves {1 2}
V: 1 clef=treble
V: 2 clef=bass
K: Ab
[V:1] z4 & z4 | 
[V:2] z4 & F,2=E,F, | 
[V:1] z4 & z4 | 
[V:2] z4 & A,2G,F, | 
[V:1] z4 & z4 | 
[V:2] C2=B,C & =E,2C,2 | 
[V:1] z4 & z4 | 
[V:2] D2C_B, & =E,4 | 
[V:1] z4 & F2=EF | 
[V:2] A,4 & F,4- | 
[V:1] z4 & A2GF | 
[V:2] C2B,A, & F,4 | 
[V:1] c2=Bc & C4- | 
[V:2] G,4 & =E,4- | 
[V:1] d2cB & C4 | 
[V:2] B,2A,G, & E,4 | 
[V:1] A2GA & D4- | 
[V:2] F,4- & D,4 | 
[V:1] B2AG & D4 | 
[V:2] F,2B,2 & B,,4 | 
[V:1] F2=E=D & C4- | 
[V:2] A,2G,F, & C,4- | 
[V:1] =E2G2 & C3B, | 
[V:2] G,2=E,2 & C,4 | 
[V:1] F4- & A,4 | 
[V:2] F,2=E,F, & F,,4- | 
[V:1] F4- & C2B,A, | 
[V:2] _E,2_D,2 & F,,4- | 
[V:1] F4- & A,2B,G, | 
[V:2] C,2D,2 & F,,4- | 
[V:1] !fermata!F4 & A,4 |]  
[V:2] C,4 & !fermata!F,,4 |]  


